X:11
T:Chief O'Neill's Favourite
Z: id:dc-hornpipe-10
M:C|
L:1/8
K:D Mixolydian
de|fefg afge|fde^c d=cAG|FADE FGAB|cAdc A2de|!
fefg afge|fde^c d=cAG|FADF GBAG|F2D2 D2:|!
DE|=FEDE FGAB|cAdB cAGc|Adde fded|cAdc A2de|!
fefg afge|fde^c d=cAG|FADF GBAG|F2D2 D2:|!